svgs/messages.svg

<svg width="192" height="192" viewBox="0 0 192 192" fill="none" xmlns="http://www.w3.org/2000/svg">
<path d="M18.5 46V40C16.0732 40 13.8854 41.4619 12.9567 43.7039C12.028 45.9459 12.5414 48.5267 14.2574 50.2426L18.5 46ZM42 52H146V40H42V52ZM160 66V126H172V66H160ZM146 140H62V152H146V140ZM42 40H18.5V52H42V40ZM48 126V76.1274H36V126H48ZM14.2574 50.2426L33.0711 69.0563L41.5563 60.5711L22.7426 41.7574L14.2574 50.2426ZM48 76.1274C48 70.2927 45.6821 64.6969 41.5563 60.5711L33.0711 69.0563C34.9464 70.9317 36 73.4753 36 76.1274H48ZM62 140C54.268 140 48 133.732 48 126H36C36 140.359 47.6406 152 62 152V140ZM160 126C160 133.732 153.732 140 146 140V152C160.359 152 172 140.359 172 126H160ZM146 52C153.732 52 160 58.268 160 66H172C172 51.6406 160.359 40 146 40V52Z" fill="black"/>
<path d="M66 84H142" stroke="black" stroke-width="12" stroke-linecap="round" stroke-linejoin="round"/>
<path d="M66 108H110" stroke="black" stroke-width="12" stroke-linecap="round" stroke-linejoin="round"/>
</svg>

<svg xmlns="http://www.w3.org/2000/svg" width="192" height="192" fill="none" xmlns:v="https://vecta.io/nano"><path d="M18.5 46v-6a6 6 0 0 0-4.243 10.243L18.5 46zM42 52h104V40H42v12zm118 14v60h12V66h-12zm-14 74H62v12h84v-12zM42 40H18.5v12H42V40zm6 86V76.127H36V126h12zM14.257 50.243l18.814 18.814 8.485-8.485-18.814-18.814-8.485 8.485zM48 76.127a22 22 0 0 0-6.444-15.556l-8.485 8.485A10 10 0 0 1 36 76.127h12zM62 140c-7.732 0-14-6.268-14-14H36c0 14.359 11.641 26 26 26v-12zm98-14c0 7.732-6.268 14-14 14v12c14.359 0 26-11.641 26-26h-12zm-14-74c7.732 0 14 6.268 14 14h12c0-14.359-11.641-26-26-26v12z" fill="#000"/><path d="M66 84h76m-76 24h44" stroke="#000" stroke-width="12" stroke-linecap="round" stroke-linejoin="round"/></svg>
